**kern	**kern	**dynam
*part1	*part1	*part1
*staff2	*staff1	*
*I"Piano	*	*
*clefF4	*clefG2	*
*k[]	*k[]	*
=1	=1	=1
(4AAA^ 4EE 4AA	(8eeL 8aa 8ccc 8eee	ppp
.	8.ccc	.
8AAA~ 8EE 8AA	.	.
.	16bbJk	.
=	=	=
8AAA~ 8EE 8AA	8ggL	.
4AAA~) 4EE 4AA	16bbL	.
.	16aa	.
.	16ff	.
.	16ggJJ)	.
=	=	=
(4AAA^ 4EE 4AA	(8e:L 8a: 8cc: 8ee:	.
.	8.cc	.
!	!LO:TX:a:i:t=morendo	!
8AAA~ 8EE 8AA	.	.
.	16bJk	.
=	=	=
8AAA~ 8EE 8AA	8gL	.
4AAA~) 4EE 4AA	16bL	.
.	16a	.
.	16f	.
.	16gJJ)	.
=	=	=
*^	*	*
4AAA 4EE 4AA	8E: 8A: 8c:	(8e:L	.
*v	*v	*	*
.	8.c<	.
[8AAA [8EE [8AA	.	.
.	16BJk<	.
=	=	=
4AAA] 4EE] 4AA]	16GLL<	.
.	16E<	.
.	16C<	.
.	16AA<	.
8rCC	16GG<	.
.	[16EEJJ<	.
=	=	=
[4.AAA 4.EE_	4.r	.
=	=	=
8AAA] 8EE]	4.r)	.
8r	.	.
8r	.	.
==	==	==
*-	*-	*-
!!!system-decoration: {(s1,s2)}
!!!RDF**kern: < = below
